images/50970887.svg

<?xml version="1.0" encoding="UTF-8"?>
<svg xmlns="http://www.w3.org/2000/svg" xmlns:xlink="http://www.w3.org/1999/xlink" width="300pt" height="300pt" viewBox="0 0 300 300" version="1.1">
<defs>
<g>
<symbol overflow="visible" id="glyph0-0">
<path style="stroke:none;" d="M 0.546875 1.9375 L 0.546875 -7.75 L 6.046875 -7.75 L 6.046875 1.9375 Z M 1.171875 1.328125 L 5.4375 1.328125 L 5.4375 -7.140625 L 1.171875 -7.140625 Z M 1.171875 1.328125 "/>
</symbol>
<symbol overflow="visible" id="glyph0-1">
<path style="stroke:none;" d="M 4.328125 -7.28125 C 3.546875 -7.28125 2.921875 -6.984375 2.453125 -6.390625 C 1.992188 -5.804688 1.765625 -5.007812 1.765625 -4 C 1.765625 -2.988281 1.992188 -2.1875 2.453125 -1.59375 C 2.921875 -1.007812 3.546875 -0.71875 4.328125 -0.71875 C 5.117188 -0.71875 5.742188 -1.007812 6.203125 -1.59375 C 6.660156 -2.1875 6.890625 -2.988281 6.890625 -4 C 6.890625 -5.007812 6.660156 -5.804688 6.203125 -6.390625 C 5.742188 -6.984375 5.117188 -7.28125 4.328125 -7.28125 Z M 4.328125 -8.171875 C 5.453125 -8.171875 6.351562 -7.789062 7.03125 -7.03125 C 7.707031 -6.28125 8.046875 -5.269531 8.046875 -4 C 8.046875 -2.738281 7.707031 -1.726562 7.03125 -0.96875 C 6.351562 -0.21875 5.453125 0.15625 4.328125 0.15625 C 3.203125 0.15625 2.300781 -0.21875 1.625 -0.96875 C 0.957031 -1.71875 0.625 -2.726562 0.625 -4 C 0.625 -5.269531 0.957031 -6.28125 1.625 -7.03125 C 2.300781 -7.789062 3.203125 -8.171875 4.328125 -8.171875 Z M 4.328125 -8.171875 "/>
</symbol>
<symbol overflow="visible" id="glyph0-2">
<path style="stroke:none;" d="M 1.078125 -8.015625 L 2.546875 -8.015625 L 6.09375 -1.3125 L 6.09375 -8.015625 L 7.15625 -8.015625 L 7.15625 0 L 5.6875 0 L 2.125 -6.703125 L 2.125 0 L 1.078125 0 Z M 1.078125 -8.015625 "/>
</symbol>
<symbol overflow="visible" id="glyph0-3">
<path style="stroke:none;" d="M 1.078125 -8.015625 L 2.171875 -8.015625 L 2.171875 -4.734375 L 6.109375 -4.734375 L 6.109375 -8.015625 L 7.1875 -8.015625 L 7.1875 0 L 6.109375 0 L 6.109375 -3.8125 L 2.171875 -3.8125 L 2.171875 0 L 1.078125 0 Z M 1.078125 -8.015625 "/>
</symbol>
</g>
</defs>
<g id="surface14109">
<rect x="0" y="0" width="300" height="300" style="fill:rgb(100%,100%,100%);fill-opacity:1;stroke:none;"/>
<path style="fill:none;stroke-width:1.2;stroke-linecap:butt;stroke-linejoin:miter;stroke:rgb(100%,0%,0%);stroke-opacity:1;stroke-miterlimit:10;" d="M 161.695312 160.304688 L 172.929688 152.453125 "/>
<path style="fill:none;stroke-width:1.2;stroke-linecap:butt;stroke-linejoin:miter;stroke:rgb(0%,0%,0%);stroke-opacity:1;stroke-miterlimit:10;" d="M 172.929688 152.453125 L 184.164062 144.605469 "/>
<path style="fill:none;stroke-width:1.2;stroke-linecap:butt;stroke-linejoin:miter;stroke:rgb(0%,0%,0%);stroke-opacity:1;stroke-miterlimit:10;" d="M 159.957031 187.660156 L 160.824219 173.980469 "/>
<path style="fill:none;stroke-width:1.2;stroke-linecap:butt;stroke-linejoin:miter;stroke:rgb(100%,0%,0%);stroke-opacity:1;stroke-miterlimit:10;" d="M 160.824219 173.980469 L 161.695312 160.304688 "/>
<path style=" stroke:none;fill-rule:nonzero;fill:rgb(100%,100%,100%);fill-opacity:1;" d="M 157.695312 153.804688 L 166.695312 153.804688 L 166.695312 166.804688 L 157.695312 166.804688 Z M 157.695312 153.804688 "/>
<g style="fill:rgb(100%,0%,0%);fill-opacity:1;">
  <use xlink:href="#glyph0-1" x="157.695312" y="163.706055"/>
</g>
<path style="fill:none;stroke-width:1.2;stroke-linecap:butt;stroke-linejoin:miter;stroke:rgb(0%,0%,0%);stroke-opacity:1;stroke-miterlimit:10;" d="M 184.164062 144.605469 L 210.449219 152.386719 "/>
<path style="fill:none;stroke-width:1.2;stroke-linecap:butt;stroke-linejoin:miter;stroke:rgb(0%,0%,0%);stroke-opacity:1;stroke-miterlimit:10;" d="M 210.449219 152.386719 L 220.753906 177.789062 "/>
<path style="fill:none;stroke-width:1.2;stroke-linecap:butt;stroke-linejoin:miter;stroke:rgb(0%,0%,0%);stroke-opacity:1;stroke-miterlimit:10;" d="M 217.457031 152.503906 L 225.699219 172.824219 "/>
<path style="fill:none;stroke-width:1.2;stroke-linecap:butt;stroke-linejoin:miter;stroke:rgb(0%,0%,0%);stroke-opacity:1;stroke-miterlimit:10;" d="M 227.296875 130.761719 L 210.449219 152.386719 "/>
<path style="fill:none;stroke-width:1.2;stroke-linecap:butt;stroke-linejoin:miter;stroke:rgb(0%,0%,0%);stroke-opacity:1;stroke-miterlimit:10;" d="M 220.753906 177.789062 L 247.902344 181.566406 "/>
<path style="fill:none;stroke-width:1.2;stroke-linecap:butt;stroke-linejoin:miter;stroke:rgb(0%,0%,0%);stroke-opacity:1;stroke-miterlimit:10;" d="M 220.753906 177.789062 L 207.320312 201.683594 "/>
<path style="fill:none;stroke-width:1.2;stroke-linecap:butt;stroke-linejoin:miter;stroke:rgb(0%,0%,0%);stroke-opacity:1;stroke-miterlimit:10;" d="M 247.902344 181.566406 L 264.75 159.941406 "/>
<path style="fill:none;stroke-width:1.2;stroke-linecap:butt;stroke-linejoin:miter;stroke:rgb(0%,0%,0%);stroke-opacity:1;stroke-miterlimit:10;" d="M 244.5 175.4375 L 257.976562 158.140625 "/>
<path style="fill:none;stroke-width:1.2;stroke-linecap:butt;stroke-linejoin:miter;stroke:rgb(0%,0%,0%);stroke-opacity:1;stroke-miterlimit:10;" d="M 264.75 159.941406 L 254.445312 134.539062 "/>
<path style="fill:none;stroke-width:1.2;stroke-linecap:butt;stroke-linejoin:miter;stroke:rgb(0%,0%,0%);stroke-opacity:1;stroke-miterlimit:10;" d="M 254.445312 134.539062 L 227.296875 130.761719 "/>
<path style="fill:none;stroke-width:1.2;stroke-linecap:butt;stroke-linejoin:miter;stroke:rgb(0%,0%,0%);stroke-opacity:1;stroke-miterlimit:10;" d="M 250.84375 140.550781 L 229.121094 137.527344 "/>
<path style="fill:none;stroke-width:1.2;stroke-linecap:butt;stroke-linejoin:miter;stroke:rgb(0%,0%,0%);stroke-opacity:1;stroke-miterlimit:10;" d="M 204.675781 203.527344 L 212.523438 214.765625 "/>
<path style="fill:none;stroke-width:1.2;stroke-linecap:butt;stroke-linejoin:miter;stroke:rgb(100%,0%,0%);stroke-opacity:1;stroke-miterlimit:10;" d="M 212.523438 214.765625 L 220.375 226 "/>
<path style="fill:none;stroke-width:1.2;stroke-linecap:butt;stroke-linejoin:miter;stroke:rgb(0%,0%,0%);stroke-opacity:1;stroke-miterlimit:10;" d="M 209.960938 199.835938 L 217.8125 211.070312 "/>
<path style="fill:none;stroke-width:1.2;stroke-linecap:butt;stroke-linejoin:miter;stroke:rgb(100%,0%,0%);stroke-opacity:1;stroke-miterlimit:10;" d="M 217.8125 211.070312 L 225.660156 222.304688 "/>
<path style="fill:none;stroke-width:1.2;stroke-linecap:butt;stroke-linejoin:miter;stroke:rgb(0%,0%,0%);stroke-opacity:1;stroke-miterlimit:10;" d="M 207.320312 201.683594 L 180.261719 206.074219 "/>
<path style=" stroke:none;fill-rule:nonzero;fill:rgb(100%,100%,100%);fill-opacity:1;" d="M 219.015625 217.652344 L 228.015625 217.652344 L 228.015625 230.652344 L 219.015625 230.652344 Z M 219.015625 217.652344 "/>
<g style="fill:rgb(100%,0%,0%);fill-opacity:1;">
  <use xlink:href="#glyph0-1" x="219.015625" y="227.553711"/>
</g>
<path style="fill:none;stroke-width:1.2;stroke-linecap:butt;stroke-linejoin:miter;stroke:rgb(0%,0%,0%);stroke-opacity:1;stroke-miterlimit:10;" d="M 180.261719 206.074219 L 159.957031 187.660156 "/>
<path style="fill:none;stroke-width:1.2;stroke-linecap:butt;stroke-linejoin:miter;stroke:rgb(0%,0%,0%);stroke-opacity:1;stroke-miterlimit:10;" d="M 173.898438 209.011719 L 157.652344 194.28125 "/>
<path style="fill:none;stroke-width:1.2;stroke-linecap:butt;stroke-linejoin:miter;stroke:rgb(0%,0%,0%);stroke-opacity:1;stroke-miterlimit:10;" d="M 174.464844 232.867188 L 180.261719 206.074219 "/>
<path style="fill:none;stroke-width:1.2;stroke-linecap:butt;stroke-linejoin:miter;stroke:rgb(0%,0%,0%);stroke-opacity:1;stroke-miterlimit:10;" d="M 159.957031 187.660156 L 133.855469 196.039062 "/>
<path style="fill:none;stroke-width:1.2;stroke-linecap:butt;stroke-linejoin:miter;stroke:rgb(0%,0%,0%);stroke-opacity:1;stroke-miterlimit:10;" d="M 133.855469 196.039062 L 128.0625 222.828125 "/>
<path style="fill:none;stroke-width:1.2;stroke-linecap:butt;stroke-linejoin:miter;stroke:rgb(0%,0%,0%);stroke-opacity:1;stroke-miterlimit:10;" d="M 139.582031 200.082031 L 134.945312 221.515625 "/>
<path style="fill:none;stroke-width:1.2;stroke-linecap:butt;stroke-linejoin:miter;stroke:rgb(0%,0%,0%);stroke-opacity:1;stroke-miterlimit:10;" d="M 128.0625 222.828125 L 115.011719 227.019531 "/>
<path style="fill:none;stroke-width:1.2;stroke-linecap:butt;stroke-linejoin:miter;stroke:rgb(0%,0%,100%);stroke-opacity:1;stroke-miterlimit:10;" d="M 115.011719 227.019531 L 101.960938 231.207031 "/>
<path style="fill:none;stroke-width:1.2;stroke-linecap:butt;stroke-linejoin:miter;stroke:rgb(0%,0%,0%);stroke-opacity:1;stroke-miterlimit:10;" d="M 128.0625 222.828125 L 148.367188 241.246094 "/>
<path style="fill:none;stroke-width:1.2;stroke-linecap:butt;stroke-linejoin:miter;stroke:rgb(0%,0%,100%);stroke-opacity:1;stroke-miterlimit:10;" d="M 101.960938 231.207031 L 91.808594 222 "/>
<path style="fill:none;stroke-width:1.2;stroke-linecap:butt;stroke-linejoin:miter;stroke:rgb(0%,0%,0%);stroke-opacity:1;stroke-miterlimit:10;" d="M 91.808594 222 L 81.65625 212.792969 "/>
<path style=" stroke:none;fill-rule:nonzero;fill:rgb(100%,100%,100%);fill-opacity:1;" d="M 93.960938 224.707031 L 110.960938 224.707031 L 110.960938 237.707031 L 93.960938 237.707031 Z M 93.960938 224.707031 "/>
<g style="fill:rgb(0%,0%,100%);fill-opacity:1;">
  <use xlink:href="#glyph0-2" x="93.960938" y="234.608398"/>
  <use xlink:href="#glyph0-3" x="101.944336" y="234.608398"/>
</g>
<path style="fill:none;stroke-width:1.2;stroke-linecap:butt;stroke-linejoin:miter;stroke:rgb(0%,0%,0%);stroke-opacity:1;stroke-miterlimit:10;" d="M 81.65625 212.792969 L 87.449219 186 "/>
<path style="fill:none;stroke-width:1.2;stroke-linecap:butt;stroke-linejoin:miter;stroke:rgb(0%,0%,0%);stroke-opacity:1;stroke-miterlimit:10;" d="M 75.929688 208.75 L 80.566406 187.316406 "/>
<path style="fill:none;stroke-width:1.2;stroke-linecap:butt;stroke-linejoin:miter;stroke:rgb(0%,0%,0%);stroke-opacity:1;stroke-miterlimit:10;" d="M 55.554688 221.167969 L 81.65625 212.792969 "/>
<path style="fill:none;stroke-width:1.2;stroke-linecap:butt;stroke-linejoin:miter;stroke:rgb(0%,0%,0%);stroke-opacity:1;stroke-miterlimit:10;" d="M 87.449219 186 L 67.144531 167.585938 "/>
<path style="fill:none;stroke-width:1.2;stroke-linecap:butt;stroke-linejoin:miter;stroke:rgb(0%,0%,0%);stroke-opacity:1;stroke-miterlimit:10;" d="M 67.144531 167.585938 L 70.042969 154.1875 "/>
<path style="fill:none;stroke-width:1.2;stroke-linecap:butt;stroke-linejoin:miter;stroke:rgb(0%,0%,100%);stroke-opacity:1;stroke-miterlimit:10;" d="M 70.042969 154.1875 L 72.941406 140.792969 "/>
<path style="fill:none;stroke-width:1.2;stroke-linecap:butt;stroke-linejoin:miter;stroke:rgb(0%,0%,0%);stroke-opacity:1;stroke-miterlimit:10;" d="M 67.144531 167.585938 L 41.046875 175.960938 "/>
<path style="fill:none;stroke-width:1.2;stroke-linecap:butt;stroke-linejoin:miter;stroke:rgb(0%,0%,0%);stroke-opacity:1;stroke-miterlimit:10;" d="M 66.507812 174.5625 L 45.625 181.265625 "/>
<path style="fill:none;stroke-width:1.2;stroke-linecap:butt;stroke-linejoin:miter;stroke:rgb(0%,0%,100%);stroke-opacity:1;stroke-miterlimit:10;" d="M 72.941406 140.792969 L 85.992188 136.605469 "/>
<path style="fill:none;stroke-width:1.2;stroke-linecap:butt;stroke-linejoin:miter;stroke:rgb(0%,0%,0%);stroke-opacity:1;stroke-miterlimit:10;" d="M 85.992188 136.605469 L 99.042969 132.414062 "/>
<path style=" stroke:none;fill-rule:nonzero;fill:rgb(100%,100%,100%);fill-opacity:1;" d="M 64.941406 134.292969 L 81.941406 134.292969 L 81.941406 147.292969 L 64.941406 147.292969 Z M 64.941406 134.292969 "/>
<g style="fill:rgb(0%,0%,100%);fill-opacity:1;">
  <use xlink:href="#glyph0-2" x="64.941406" y="144.194336"/>
  <use xlink:href="#glyph0-3" x="72.924805" y="144.194336"/>
</g>
<path style="fill:none;stroke-width:1.2;stroke-linecap:butt;stroke-linejoin:miter;stroke:rgb(0%,0%,0%);stroke-opacity:1;stroke-miterlimit:10;" d="M 96.875 134.804688 L 107.027344 144.011719 "/>
<path style="fill:none;stroke-width:1.2;stroke-linecap:butt;stroke-linejoin:miter;stroke:rgb(100%,0%,0%);stroke-opacity:1;stroke-miterlimit:10;" d="M 107.027344 144.011719 L 117.179688 153.21875 "/>
<path style="fill:none;stroke-width:1.2;stroke-linecap:butt;stroke-linejoin:miter;stroke:rgb(0%,0%,0%);stroke-opacity:1;stroke-miterlimit:10;" d="M 101.207031 130.027344 L 111.359375 139.234375 "/>
<path style="fill:none;stroke-width:1.2;stroke-linecap:butt;stroke-linejoin:miter;stroke:rgb(100%,0%,0%);stroke-opacity:1;stroke-miterlimit:10;" d="M 111.359375 139.234375 L 121.511719 148.441406 "/>
<path style="fill:none;stroke-width:1.2;stroke-linecap:butt;stroke-linejoin:miter;stroke:rgb(0%,0%,0%);stroke-opacity:1;stroke-miterlimit:10;" d="M 99.042969 132.414062 L 104.835938 105.625 "/>
<path style=" stroke:none;fill-rule:nonzero;fill:rgb(100%,100%,100%);fill-opacity:1;" d="M 115.347656 144.332031 L 124.347656 144.332031 L 124.347656 157.332031 L 115.347656 157.332031 Z M 115.347656 144.332031 "/>
<g style="fill:rgb(100%,0%,0%);fill-opacity:1;">
  <use xlink:href="#glyph0-1" x="115.347656" y="154.233398"/>
</g>
<path style="fill:none;stroke-width:1.2;stroke-linecap:butt;stroke-linejoin:miter;stroke:rgb(0%,0%,0%);stroke-opacity:1;stroke-miterlimit:10;" d="M 104.835938 105.625 L 130.9375 97.246094 "/>
<path style="fill:none;stroke-width:1.2;stroke-linecap:butt;stroke-linejoin:miter;stroke:rgb(0%,0%,0%);stroke-opacity:1;stroke-miterlimit:10;" d="M 105.476562 98.644531 L 126.355469 91.941406 "/>
<path style="fill:none;stroke-width:1.2;stroke-linecap:butt;stroke-linejoin:miter;stroke:rgb(0%,0%,0%);stroke-opacity:1;stroke-miterlimit:10;" d="M 84.53125 87.207031 L 104.835938 105.625 "/>
<path style="fill:none;stroke-width:1.2;stroke-linecap:butt;stroke-linejoin:miter;stroke:rgb(0%,0%,0%);stroke-opacity:1;stroke-miterlimit:10;" d="M 130.9375 97.246094 L 136.730469 70.453125 "/>
<path style="fill:none;stroke-width:1.2;stroke-linecap:butt;stroke-linejoin:miter;stroke:rgb(0%,0%,0%);stroke-opacity:1;stroke-miterlimit:10;" d="M 136.730469 70.453125 L 116.425781 52.039062 "/>
<path style="fill:none;stroke-width:1.2;stroke-linecap:butt;stroke-linejoin:miter;stroke:rgb(0%,0%,0%);stroke-opacity:1;stroke-miterlimit:10;" d="M 130.367188 73.390625 L 114.125 58.65625 "/>
<path style="fill:none;stroke-width:1.2;stroke-linecap:butt;stroke-linejoin:miter;stroke:rgb(0%,0%,0%);stroke-opacity:1;stroke-miterlimit:10;" d="M 116.425781 52.039062 L 90.328125 60.417969 "/>
<path style="fill:none;stroke-width:1.2;stroke-linecap:butt;stroke-linejoin:miter;stroke:rgb(0%,0%,0%);stroke-opacity:1;stroke-miterlimit:10;" d="M 90.328125 60.417969 L 84.53125 87.207031 "/>
<path style="fill:none;stroke-width:1.2;stroke-linecap:butt;stroke-linejoin:miter;stroke:rgb(0%,0%,0%);stroke-opacity:1;stroke-miterlimit:10;" d="M 96.050781 64.457031 L 91.414062 85.894531 "/>
<path style="fill:none;stroke-width:1.2;stroke-linecap:butt;stroke-linejoin:miter;stroke:rgb(0%,0%,0%);stroke-opacity:1;stroke-miterlimit:10;" d="M 41.046875 175.960938 L 35.25 202.753906 "/>
<path style="fill:none;stroke-width:1.2;stroke-linecap:butt;stroke-linejoin:miter;stroke:rgb(0%,0%,0%);stroke-opacity:1;stroke-miterlimit:10;" d="M 35.25 202.753906 L 55.554688 221.167969 "/>
<path style="fill:none;stroke-width:1.2;stroke-linecap:butt;stroke-linejoin:miter;stroke:rgb(0%,0%,0%);stroke-opacity:1;stroke-miterlimit:10;" d="M 41.613281 199.816406 L 57.859375 214.550781 "/>
<path style="fill:none;stroke-width:1.2;stroke-linecap:butt;stroke-linejoin:miter;stroke:rgb(0%,0%,0%);stroke-opacity:1;stroke-miterlimit:10;" d="M 55.554688 221.167969 L 49.757812 247.960938 "/>
<path style="fill:none;stroke-width:1.2;stroke-linecap:butt;stroke-linejoin:miter;stroke:rgb(0%,0%,0%);stroke-opacity:1;stroke-miterlimit:10;" d="M 148.367188 241.246094 L 174.464844 232.867188 "/>
<path style="fill:none;stroke-width:1.2;stroke-linecap:butt;stroke-linejoin:miter;stroke:rgb(0%,0%,0%);stroke-opacity:1;stroke-miterlimit:10;" d="M 149.003906 234.265625 L 169.886719 227.5625 "/>
</g>
</svg>

<svg xmlns="http://www.w3.org/2000/svg" xmlns:xlink="http://www.w3.org/1999/xlink" width="300pt" height="300pt" viewBox="0 0 300 300"><defs><symbol overflow="visible"><path d="M.547 1.938V-7.75h5.5v9.688zm.625-.61h4.266v-8.47H1.171zm0 0"/></symbol><symbol overflow="visible" id="a"><path d="M4.328-7.28c-.78 0-1.406.296-1.875.89-.46.585-.687 1.382-.687 2.39 0 1.012.226 1.813.687 2.406.47.586 1.094.875 1.875.875.79 0 1.414-.288 1.875-.874.457-.593.688-1.394.688-2.406 0-1.008-.23-1.805-.687-2.39-.46-.594-1.086-.89-1.875-.89zm0-.892c1.125 0 2.024.383 2.703 1.14C7.708-6.28 8.048-5.27 8.048-4c0 1.262-.34 2.273-1.016 3.03C6.353-.22 5.454.157 4.33.157S2.3-.22 1.625-.97c-.668-.75-1-1.757-1-3.03 0-1.27.332-2.28 1-3.03.676-.76 1.578-1.142 2.703-1.142zm0 0"/></symbol><symbol overflow="visible" id="b"><path d="M1.078-8.016h1.47l3.546 6.704v-6.704h1.062V0H5.688L2.124-6.703V0H1.078zm0 0"/></symbol><symbol overflow="visible" id="c"><path d="M1.078-8.016h1.094v3.282H6.11v-3.282h1.077V0H6.11v-3.813H2.17V0H1.078zm0 0"/></symbol></defs><g><path fill="#fff" d="M0 0h300v300H0z"/><path d="M161.695 160.305l11.235-7.852" stroke-width="1.2" stroke="#f00" stroke-miterlimit="10" fill="none"/><path d="M172.93 152.453l11.234-7.848M159.957 187.66l.867-13.68" stroke-width="1.2" stroke="#000" stroke-miterlimit="10" fill="none"/><path d="M160.824 173.98l.87-13.675" stroke-width="1.2" stroke="#f00" stroke-miterlimit="10" fill="none"/><path d="M157.695 153.805h9v13h-9zm0 0" fill="#fff"/><use xlink:href="#a" x="157.695" y="163.706" fill="#f00"/><path d="M184.164 144.605l26.285 7.782M210.45 152.387l10.304 25.402M217.457 152.504l8.242 20.32M227.297 130.762l-16.848 21.625M220.754 177.79l27.148 3.776M220.754 177.79l-13.434 23.894M247.902 181.566l16.848-21.625M244.5 175.438l13.477-17.297M264.75 159.94l-10.305-25.4M254.445 134.54l-27.148-3.778M250.844 140.55l-21.723-3.023M204.676 203.527l7.847 11.24" stroke-width="1.2" stroke="#000" stroke-miterlimit="10" fill="none"/><path d="M212.523 214.766L220.375 226" stroke-width="1.2" stroke="#f00" stroke-miterlimit="10" fill="none"/><path d="M209.96 199.836l7.852 11.234" stroke-width="1.2" stroke="#000" stroke-miterlimit="10" fill="none"/><path d="M217.813 211.07l7.847 11.235" stroke-width="1.2" stroke="#f00" stroke-miterlimit="10" fill="none"/><path d="M207.32 201.684l-27.058 4.39" stroke-width="1.2" stroke="#000" stroke-miterlimit="10" fill="none"/><path d="M219.016 217.652h9v13h-9zm0 0" fill="#fff"/><use xlink:href="#a" x="219.016" y="227.554" fill="#f00"/><path d="M180.262 206.074l-20.305-18.414M173.898 209.012l-16.246-14.73M174.465 232.867l5.797-26.793M159.957 187.66l-26.102 8.38M133.855 196.04l-5.792 26.788M139.582 200.082l-4.637 21.434M128.063 222.828l-13.05 4.192" stroke-width="1.2" stroke="#000" stroke-miterlimit="10" fill="none"/><path d="M115.012 227.02l-13.05 4.187" stroke-width="1.2" stroke="#00f" stroke-miterlimit="10" fill="none"/><path d="M128.063 222.828l20.304 18.418" stroke-width="1.2" stroke="#000" stroke-miterlimit="10" fill="none"/><path d="M101.96 231.207L91.81 222" stroke-width="1.2" stroke="#00f" stroke-miterlimit="10" fill="none"/><path d="M91.81 222l-10.154-9.207" stroke-width="1.2" stroke="#000" stroke-miterlimit="10" fill="none"/><path d="M93.96 224.707h17v13h-17zm0 0" fill="#fff"/><g fill="#00f"><use xlink:href="#b" x="93.961" y="234.608"/><use xlink:href="#c" x="101.944" y="234.608"/></g><path d="M81.656 212.793L87.45 186M75.93 208.75l4.636-21.434M55.555 221.168l26.1-8.375M87.45 186l-20.305-18.414M67.145 167.586l2.898-13.4" stroke-width="1.2" stroke="#000" stroke-miterlimit="10" fill="none"/><path d="M70.043 154.188l2.898-13.395" stroke-width="1.2" stroke="#00f" stroke-miterlimit="10" fill="none"/><path d="M67.145 167.586l-26.098 8.375M66.508 174.563l-20.883 6.703" stroke-width="1.2" stroke="#000" stroke-miterlimit="10" fill="none"/><path d="M72.94 140.793l13.052-4.188" stroke-width="1.2" stroke="#00f" stroke-miterlimit="10" fill="none"/><path d="M85.992 136.605l13.05-4.19" stroke-width="1.2" stroke="#000" stroke-miterlimit="10" fill="none"/><path d="M64.94 134.293h17v13h-17zm0 0" fill="#fff"/><g fill="#00f"><use xlink:href="#b" x="64.941" y="144.194"/><use xlink:href="#c" x="72.925" y="144.194"/></g><path d="M96.875 134.805l10.152 9.207" stroke-width="1.2" stroke="#000" stroke-miterlimit="10" fill="none"/><path d="M107.027 144.012l10.153 9.207" stroke-width="1.2" stroke="#f00" stroke-miterlimit="10" fill="none"/><path d="M101.207 130.027l10.152 9.207" stroke-width="1.2" stroke="#000" stroke-miterlimit="10" fill="none"/><path d="M111.36 139.234l10.152 9.207" stroke-width="1.2" stroke="#f00" stroke-miterlimit="10" fill="none"/><path d="M99.043 132.414l5.793-26.79" stroke-width="1.2" stroke="#000" stroke-miterlimit="10" fill="none"/><path d="M115.348 144.332h9v13h-9zm0 0" fill="#fff"/><use xlink:href="#a" x="115.348" y="154.233" fill="#f00"/><path d="M104.836 105.625l26.102-8.38M105.477 98.645l20.878-6.704M84.53 87.207l20.306 18.418M130.938 97.246l5.792-26.793M136.73 70.453L116.426 52.04M130.367 73.39l-16.242-14.734M116.426 52.04l-26.098 8.378M90.328 60.418l-5.797 26.79M96.05 64.457l-4.636 21.438M41.047 175.96l-5.797 26.794M35.25 202.754l20.305 18.414M41.613 199.816L57.86 214.55M55.555 221.168l-5.797 26.793M148.367 241.246l26.098-8.38M149.004 234.266l20.883-6.703" stroke-width="1.2" stroke="#000" stroke-miterlimit="10" fill="none"/></g></svg>
